Simply-Red-Circles/scalable/apps/distributor-logo-ubuntu.svg

<svg xmlns="http://www.w3.org/2000/svg" width="48" height="48" viewBox="0 0 12.7 12.7"><path d="M6.34.07a6.29 6.29 0 0 0-6.29 6.3 6.29 6.29 0 0 0 6.3 6.28 6.29 6.29 0 0 0 6.28-6.29A6.29 6.29 0 0 0 6.34.07zM6.32 1l.01.01a5.4 5.4 0 0 1 5.4 5.4 5.4 5.4 0 0 1-5.4 5.41 5.4 5.4 0 0 1-5.41-5.4A5.4 5.4 0 0 1 6.32 1zM8.3 2.23c-.26 0-.5.15-.65.39a.75.75 0 0 0 .28 1.03c.36.2.85.08 1.06-.28a.76.76 0 0 0-.29-1.04.83.83 0 0 0-.4-.1zm-1.94.82c-.52 0-1.01.12-1.45.34l.54.95c.28-.14.58-.23.91-.23 1.17 0 2.14.91 2.24 2.05l1.07-.02a3.3 3.3 0 0 0-.99-2.15c-.29.11-.6.1-.9-.07a1.1 1.1 0 0 1-.51-.77c-.28-.08-.6-.1-.9-.1zm-1.82.55a3.3 3.3 0 0 0-1.37 1.92c.24.2.4.5.4.83 0 .34-.16.64-.4.84.2.8.7 1.46 1.37 1.9l.56-.92a2.22 2.22 0 0 1 0-3.64l-.56-.93zm-2.04 2a.76.76 0 0 0-.77.75c0 .42.35.77.77.77.42 0 .75-.35.75-.77a.75.75 0 0 0-.75-.75zm6.1.94A2.26 2.26 0 0 1 6.36 8.6c-.33 0-.63-.1-.91-.22l-.54.94a3.43 3.43 0 0 0 2.36.24c.05-.3.23-.6.52-.77.28-.17.6-.18.9-.07.56-.55.93-1.3.98-2.15L8.6 6.54zm-.3 2.4a.75.75 0 0 0-.37.12.75.75 0 0 0-.28 1.03c.21.36.69.49 1.05.28.37-.21.5-.67.29-1.04a.78.78 0 0 0-.7-.38z" fill="#a02c2c"/></svg>

<?xml version="1.0" encoding="UTF-8" standalone="no"?>
<svg
   xmlns:dc="http://purl.org/dc/elements/1.1/"
   xmlns:cc="http://creativecommons.org/ns#"
   xmlns:rdf="http://www.w3.org/1999/02/22-rdf-syntax-ns#"
   xmlns:svg="http://www.w3.org/2000/svg"
   xmlns="http://www.w3.org/2000/svg"
   xmlns:sodipodi="http://sodipodi.sourceforge.net/DTD/sodipodi-0.dtd"
   xmlns:inkscape="http://www.inkscape.org/namespaces/inkscape"
   width="48"
   height="48"
   viewBox="0 0 12.7 12.7"
   version="1.1"
   id="svg4"
   sodipodi:docname="distributor-logo-ubuntu.svg"
   inkscape:version="0.92.4 (5da689c313, 2019-01-14)">
  <metadata
     id="metadata10">
    <rdf:RDF>
      <cc:Work
         rdf:about="">
        <dc:format>image/svg+xml</dc:format>
        <dc:type
           rdf:resource="http://purl.org/dc/dcmitype/StillImage" />
        <dc:title></dc:title>
      </cc:Work>
    </rdf:RDF>
  </metadata>
  <defs
     id="defs8" />
  <sodipodi:namedview
     pagecolor="#ffffff"
     bordercolor="#666666"
     borderopacity="1"
     objecttolerance="10"
     gridtolerance="10"
     guidetolerance="10"
     inkscape:pageopacity="0"
     inkscape:pageshadow="2"
     inkscape:window-width="1087"
     inkscape:window-height="480"
     id="namedview6"
     showgrid="false"
     inkscape:zoom="4.9166667"
     inkscape:cx="2.1355932"
     inkscape:cy="24"
     inkscape:window-x="0"
     inkscape:window-y="25"
     inkscape:window-maximized="0"
     inkscape:current-layer="svg4" />
  <path
     d="M 6.34,0.07 A 6.29,6.29 0 0 0 0.05,6.37 6.29,6.29 0 0 0 6.35,12.65 6.29,6.29 0 0 0 12.63,6.36 6.29,6.29 0 0 0 6.34,0.07 Z M 6.32,1 6.33,1.01 a 5.4,5.4 0 0 1 5.4,5.4 5.4,5.4 0 0 1 -5.4,5.41 A 5.4,5.4 0 0 1 0.92,6.42 5.4,5.4 0 0 1 6.32,1 Z M 8.3,2.23 C 8.04,2.23 7.8,2.38 7.65,2.62 A 0.75,0.75 0 0 0 7.93,3.65 C 8.29,3.85 8.78,3.73 8.99,3.37 A 0.76,0.76 0 0 0 8.7,2.33 0.83,0.83 0 0 0 8.3,2.23 Z M 6.36,3.05 C 5.84,3.05 5.35,3.17 4.91,3.39 L 5.45,4.34 C 5.73,4.2 6.03,4.11 6.36,4.11 7.53,4.11 8.5,5.02 8.6,6.16 L 9.67,6.14 A 3.3,3.3 0 0 0 8.68,3.99 C 8.39,4.1 8.08,4.09 7.78,3.92 A 1.1,1.1 0 0 1 7.27,3.15 C 6.99,3.07 6.67,3.05 6.37,3.05 Z M 4.54,3.6 A 3.3,3.3 0 0 0 3.17,5.52 c 0.24,0.2 0.4,0.5 0.4,0.83 0,0.34 -0.16,0.64 -0.4,0.84 0.2,0.8 0.7,1.46 1.37,1.9 L 5.1,8.17 a 2.22,2.22 0 0 1 0,-3.64 z M 2.5,5.6 A 0.76,0.76 0 0 0 1.73,6.35 c 0,0.42 0.35,0.77 0.77,0.77 0.42,0 0.75,-0.35 0.75,-0.77 A 0.75,0.75 0 0 0 2.5,5.6 Z M 8.6,6.54 A 2.26,2.26 0 0 1 6.36,8.6 C 6.03,8.6 5.73,8.5 5.45,8.38 L 4.91,9.32 A 3.43,3.43 0 0 0 7.27,9.56 C 7.32,9.26 7.5,8.96 7.79,8.79 8.07,8.62 8.39,8.61 8.69,8.72 9.25,8.17 9.62,7.42 9.67,6.57 Z M 8.3,8.94 A 0.75,0.75 0 0 0 7.93,9.06 0.75,0.75 0 0 0 7.65,10.09 C 7.86,10.45 8.34,10.58 8.7,10.37 9.07,10.16 9.2,9.7 8.99,9.33 A 0.78,0.78 0 0 0 8.29,8.95 Z"
     id="path2"
     inkscape:connector-curvature="0"
     style="fill:#a02c2c" />
</svg>
